X:130
T:Prince Charles's last view of Scotland
T:An Sealladh ma dheireadh thug Tearlach
R:Slow Air
S:Simon Fraser Collection
N:No.202
O:Scottish
M:6/8
L:1/8
Q:3/8=50
K:G Minor
G/A/|:~B>cB A2 G/^F/|G<DB =FDB,|B>cB A2 G/^F/|GAc d2D|
~B>cB A2 G/^F/|G<DB =FD B,/C/|D>^CD B,2A,|G,G^F G2:|
D|B>AG A^FD|B>cd G^FD|B>AG c>BA|d2^F G2 z/D/|[D3B3] [E3A3c3]|
d>^cd [G2B2e2g2] a/b/|dcB cBA|G/^F/G/A/B/c/ d2D||

